X:0623
T:Lady Loudon's Strathspey.
M:C
L:1/8
Q:1/4=120
I: :: :|
Z:Jack Campin * www.campin.me.uk * 2009
K:D
f/g/|a<da>f a<da>f|a<da>f (ge) ef/g/|a<da>f a<da>f|g<ba>f    fdd  :|
f   |A>dF>d A>dfd |A>dF>d  eEE>d    |A>dF>d A>dfd |g/a/b Tag fdTd>f|
     A>dF>d A<df>d|A>dF>d  eEETg/a/ |b>ga>f g>ef>d|g>bag     fdd  |]

